X:1
T:4 Gesänge, Op.46
T:Die Kränze
T:4 Gesänge, Op.46
T:1. Die Kränze
T:Johannes Brahms
T:Georg Friedrich Daumer
T:OpenScore (CC0)
T:OpenScore (CC0)
T:OpenScore (CC0)
T:OpenScore (CC0)
T:OpenScore (CC0)
C:Johannes Brahms
Z:Georg Friedrich Daumer
Z:OpenScore (CC0)
%%score 1 { ( 2 3 ) | ( 4 5 ) }
L:1/8
Q:1/4=80
M:4/4
K:Db
V:1 treble nm="Voice"
V:2 treble nm="Piano"
V:3 treble 
V:4 bass 
V:5 bass 
V:1
"^Ziemlich langsam" z8 | z8 | z8 | z8 | F4 z2 E F | G4- G F A d | e3 c A2 G2 | G2 F2 z2 F F | %8
w: ||||Hier ob dem|Ein- * gang seid be-|fe- sti- get, ihr|Krän- ze, so be-|
 d3 d d2 c2 | e4 z c d f | g3 c e2 d2 | (.c4 .B4) | c4 z2 c2 | d6 _c2 | B4 A4 | =G6 d2 | e6 e2 | %17
w: reg- net und be-|netzt von mei- nes|Au- ges schmerz- li-|chem Er-|guß! Denn|reich zu|trä- nen|pflegt das|Aug der|
 (_g6 c2) | d4 z4 | z8 | z8 | z4 z2 A2 ||[K:E] G3 G c2 G2 | B2 A2 z2 A2 | f3 A f2 d2 | %25
w: Lie- *|be.|||Dies|zar- te Naß, ich|bit- te, nicht|all- zu frü- he|
 (.e .B .A .G) F2 z2 | z8 | F2 F2 z F B F | A2 =G2 z2 G2 | e2 =G G e3 c | =d A =G F c3 B | %31
w: träu- fet es her- ab.||Spart es, bis ihr ver-|neh- met, daß|sie sich der Schwel- le|naht mit ih- rem Gra- zien-|
 E2 E2 z2[Q:1/4=75]"^rit. un poco" A2 | =d3 c ^B4[Q:1/4=70][Q:1/4=67] | c2 ^d e f4- | f2 ^B2 c4 | %35
w: schrit- te, die|Teu- e- re,|die mir so un-|* ge- lind.|
 z8 | z8 |[Q:1/4=80]"^a tempo" z c e c B A B c | =d2 c2 z A B c | =d3 c f2 e2 | ^d2 =d2 c3 =c | %41
w: ||Mit ein- em Ma- le dann her-|nie- der sei es auf|ih- res Haup- tes|gold- ne Pracht er-|
 =c4 B2 z2 | z2"^espress."!p! ^A2 B2 =A2 | =A2 G2 =d2 c2 | B3 A A2 z2 | z8 | z4 |[K:Db] z2 _A2 | %48
w: gos- sen,|und sie emp-|fin- de, daß es|Trä- nen sind;|||daß|
 A2 =G2 d2 c2 | B2 A2 B2 c2 | d6 d2 |!<(! d2 d2!<)!!>(! e2 d2!>)! | d2 A2 =G4 | z2 d2 (e4 | %54
w: es die Trä- nen|sind, die mei- nem|Aug in|die- ser kum- mer-|vol- len Nacht|ent- flos-|
 _g6 c2) | d4 z4 | z8 | z8 | z8 | z8 | z8 | z8 | z8 | !fermata!z8 |] %64
w: |sen.|||||||||
V:2
!p! z2 (.A.B) A4 | z2 (.A.B) A4 | z2!>(! (.A.B) A4!>)! | z2 (.A.B) A4 | z2 (.A.B) A4 | %5
 z2 (.A.B) A4 | z2 (.A.B) A4 | z2 (.A.B) A4 | [Bd]6!<(! [=Ac]2 | [ce]6 [Bd]2!<)! | [eg]6 [df]2 | %11
!>(! [ce]4 [Bd]4 | [=Ac]6!>)! z2 | [_Ad]4 [A_c]4 | [GB]4 [FA]4 | =G8 | %16
 z2!<(! (3=G,DE z2 (3=GBe!<)! |!>(! z2 (3A,DE z2 (3E_GA!>)! | z2 (.A.B) A4 | z2 (.A.B)!<(! A4!<)! | %20
 z2 (.A.B)!>(! A4 | z2!>)! (.A.B) A4 ||[K:E]!p! z2 G2 z2 G2 | z2 A2 z2 A2 | z2!<(! A2 z2 B2!<)! | %25
 z2!>(! (3(B,E^A) z2 (3(B,FB)!>)! |!>(! (e4!>)! d4) |!p! z2 F6 | z2 =G6 | z2 =G2!<(! z2 A2 | %30
 z2 (3(=D!<)!A!>(!=d) z2 (3(D=FB)!>)! | z2 (3(C!<(!EA) z2 (3(CEA) | x4!<)!!f! a4 | ^g4 f4- | %34
!>(! f3 ^B c4!>)! |!<(! z (.[Ac].[^B^d].[ce])!<)!!f! [=df]4- |!>(! [=df]2 ^B2!>)! c4 | %37
 z!f! (.[Ac].[ce].[Ac]) (.[GB].A.[GB].[Ac]) | !>![Afa]2 (.[ce].[Ac]) (.[GB].A.[GB].[Ac]) | %39
!>(! a2!>)!!mf! e2!>(!!<(! a2!>)!!mf! e2 |!>(! a2!>)!!mf! e2!>(! a2!>)!!f! e2!<)! | %41
!f!!>(! a2 ^d2 e2 ^c2 | =d2"^espress." ^A2!>)!!p! B2 =A2 |!p! z2 G2 z2 G2 | z2 A2 z2 A2- | %45
!<(! A2 G2!<)!!>(! =d2 c2!>)! | B3 A- |[K:Db] =A2 _A2 | z2 =G2 z2 G2 |!<(! z2 A2 B2 c2!<)! | %50
 [Ad]4"_cresc." [Ac]4 | [A_c]4 [GB]4 | [FA]4 =G4- | G8 |!>(! z2 (3(A,DE) z2 (3(E_G!>)!A) | %55
 z2!p! (.A.B) A4 | z2 (.A.B)!<(! A4!<)! |!f! z2!>(! (.d.e) d4!>)! |!mp! z2 (.d.e)!<(! d4!<)! | %59
!mf!!>(! z2 (.d.e) d4!>)! |!p! z2"_dim." (.[Dd].[Ee]) [Dd]4 | (.[Dd].[Ee]) [Dd]2 z2 (.D.E) | %62
 D4 D4 |!pp! z2 (3z A,-D- x4 |] %64
V:3
 [DF]6 [CE]2 | [EG]4- [EG]!<(!(.[DF].[FA].[Ad])!<)! | [Ge]6 [Ec]2 | [CA]6 [EG]2 | [DF]6 [CE]2 | %5
 [EG]4- [EG](.[DF].[FA].[Ad]) | [Ge]4 [CA]2 [EG]2 | [DF]6 [DF]2 | z2 (.F.G) F4 | z2 (.F.G) F4 | %10
 z2 ((.F.G)) F4 | z2 (.F.G) z2 (.F.G) | z2 (.F.G) F2 E2 | z2 (.D.E) z2 (.D.E) | %14
 z2 (.D.E) z2 (.D.E) | z2 (.D.E) z2 (.[=G,D].E) | x8 | x8 | z2 [DF]4 (3:2:2z2 [A,E] | %19
 (3:2:2z2 ([EG]- [EG]2-) [EG](.[DF].[FA].[Ad]) | [Ge]6 [Ec]2 | [CA]6 [EG]2 || %22
[K:E] z2 (.[CE].F) z2 (.[CE].F) | z2 (.[CE].F) z2 (.[=CE].F) | z2 (.[B,E].F) z2 (.D.F) | x8 | %26
 z2 (3(EF^A) z2 (3(DFB) | x2 (.[B,=D].E) z2 (.[B,D].E) | z2 (.[B,=D].E) z2 (.[_B,D].E) | %29
 z2 (.[A,=D].E) z2 (.C.E) | x8 | x8 | z2 (3=DA=d z2 (3A^B^d | z2 (3Gce z2 (3FA=d | %34
 z2 (3FG^B z2 (3CEG | z4 z2 (3z FA | z (.F.G.^D) z2 (3CEG | x8 | x8 | (3a=dA (3ecA (3fdA (3cAE | %40
 (3^d=cA (3=dBE (3e^cA (3eAE | (3(a=cA (3^dcA (3eBG (3^c=GE | (3=d^GE (3^AEC (3BE=D (3=AD=A,) | %43
 x2 (.[B,=D].E) x2 (.[B,D].E) | x2 (.[A,C].E) x2 (.=C.E) | z2 (.[B,=D].E) z2 (.[DG].E) | %46
 z2 (.C.E) |[K:Db] z2 (._A,._D) | z2 (.[B,D].E) z2 (.D.E) | z2 (.C.E) z2 (.E.A) | %50
 z2 (.D.E) z2 (.D.E) | z2 (.D.E) z2 (.D.E) | z2 (.D.E) z2!<(! (.D.E) | z2 (.D.E) z2 (3(=G,DE)!<)! | %54
 x8 | z2 [DF]4 (3:2:2z2 [A,E] | (3:2:2z2 [EG]- [EG]2- [EG](.[DF].[FA].[Ad]) | [_ca]6 [Ac]2 | %58
 [GB]4- [GB](.[FA].[Ad].[df]) | [_ca]6 [Ac]2 | [GB]6 [G__B]2- | [GB]4 [G,G]4- | [G,G]4 [__B,E]4 | %63
 x2 (3:2:2x A,2 !fermata![A,DA]4 |] %64
V:4
 z2"^dolce" (.A,.B,) A,4 | z2 (.A,.B,) A,4 | z2 (.A,.B,) A,4 | z2 (.A,.B,) A,4 | z2 (.A,.B,) A,4 | %5
 z2 (.A,.B,) A,4 | z2 (.A,.B,) A,4 | z2 (.A,.B,) A,4 | z2 (.F,.G,) F,4 | z2 (.F,.G,) F,4 | %10
 z2 (.F,.G,) F,4 | z2 (.F,.G,) z2 (.F,.G,) | z2 (.F,.G,) F,2 E,2 | %13
"^dolce" (.D,.E,) z2 (.D,.E,) z2 | (.D,.E,) z2 (.D,.E,) z2 | (.D,.E,) z2 (.D,.E,) z2 | %16
 (3E,,D,E, z2 (3E,DE z2 | (3A,,D,E, z2 (3A,,E,C z2 | %18
 (3(D,,A,,F,)!ped! (.A,.B,) A,2!ped-up! (3(C,,E,) z | x4!ped! A,4!ped-up! | %20
 z2!ped! (.A,.B,) A,2!ped-up! z2 | z2!ped! (.A,.B,) A,4!ped-up! ||[K:E] G,8 | A,8 | A,4 B,4 | %25
 (3(G,,E,G,) x2 (3(D,,B,,F,) x2 | (3(C,,C,F,) z2 (3(B,,,B,,F,) z2 | F,8 | =G,8 | =G,4 A,4 | %30
 (3(F,,=D,A,) z2 (3(G,,=F,B,) x2 | (3(A,,E,A,) z2 (3=G,,E,A,"^rit. un poco" z2 | %32
 (3F,,=D,A, z2 (3F,^B,^D z2 | (3[E,,E,]^G,C z2 (3[=D,,=D,]F,A, z2 | (3(G,,^D,G,) z2 (3C,E,G, z2 | %35
 (3(A,,E,A, (3CE) z (3=D,,=D,F, (3A, z z | (3(G,,F,G,) z2 (3C,E,G, z2 | %37
 (3(A,,E,A, (3CE) z (3(=DA,C (3DA,E) | (3(=D,,A,,=D,) (3(A,,E,A,) (3(=DA,C (3DA,E) | %39
 (F,2 E,2 =D,2 E,2) | (F,2 E,2 E,2 A,2) | ([E,-=CF]4 [E,B,E]2) E,2- | B,2 (=G,2 ^G,2 F,2) | %43
 (.=D,.E,) z2 (.D,.E,) z2 | (.C,.E,) z2 (.=C,.E,) z2 | (.B,,.E,) z2 (.B,,.E,) z2 | (.C,.E,) z2 | %47
[K:Db] (._D,._F,) z2 | (.D,.E,) z2 (.D,.E,) z2 | (.C,.E,) z2 (.A,,._G,) z2 | %50
"^espress." (.D,.E,) z2 (.D,.E,) z2 | (.D,.E,) z2 (.D,.E,) z2 | (.D,.E,) z2 (.D,.E,) z2 | %53
 (.D,.E,) z2 (3(E,,D,E,) z2 | (3(A,,D,E,) z2 (3([A,,,A,,]E,C) z2 | %55
 (3(D,,A,,!ped!F,) (.A,.B,) A,2!ped-up! (3(C,,A,,E,) | x4 A,4 |!ped! [_CA]6 [F,C]2!ped-up! | %58
!ped! [G,B,]4!ped-up! x4 |!ped! [_CA]6!ped-up! A,2 | %60
!ped! (3z (D,,D,) [G,B,]4!ped-up!!ped! (3z (D,,D,) | x6!ped-up! (.D,.E,) | %62
 [B,,,B,,]4!ped! x4!ped-up! |!ped! (3[D,,,D,,](A,,D,- [A,,D,F,]2-) !fermata![A,,D,F,]4!ped-up! |] %64
V:5
 [D,F,]6 [C,E,]2 | [E,G,]4- [E,G,][D,F,][F,A,][A,D] | [G,E]6 [E,C]2 | [C,A,]6 [E,G,]2 | %4
 [D,F,]6 [C,E,]2 | [E,G,]4- [E,G,](.[D,F,].[F,A,].[A,D]) | [G,E]4 [C,A,]2 [E,G,]2 | %7
 [D,F,]6 [D,F,]2 | [B,,D,]6 [C,E,]2 | [=A,,C,]6 [B,,D,]2 | [F,,=A,,]6 [=G,,B,,]2 | %11
 [=A,,C,]4 [B,,D,]4 | [F,,C,]6 z2 | [F,,_A,,]4 [F,,A,,]4 | G,,4 A,,4 | =A,,4 B,,4 | x8 | x8 | x8 | %19
 (3(E,,G,) z (.A,.B,) (3z (D,,!<(!F,) (.[F,A,].[A,D])!<)! | (3z (C,,E,) z2 z2 (3z (A,,,A,,) | %21
 (3z (A,,G,) z2 A,2 [C,E,]2 ||[K:E] (.[C,E,].F,) z2 (.[C,E,].F,) z2 | %23
 (.[C,E,].F,) z2 (.[=C,E,].F,) z2 | (.[B,,E,].F,) z2 (!arpeggio!.[A,,D,].F,) z2 | %25
 G,,2 E,,2 D,,2 z2 | x8 | (.[B,,=D,].E,) z2 (.[B,,D,].E,) z2 | %28
 (.[B,,=D,].E,) z2 (.[_B,,D,].E,) z2 | (.[A,,=D,].E,) z2 (.[=G,,C,].E,) z2 | z2 =D,,2 ^G,,4 | x8 | %32
 x8 | x8 | x8 | x8 | x8 | x8 | x8 | (F,,2 A,,2 =D,,2 A,,2) | (F,,2 G,,2 A,,3 =C,) | x6 ^A,2 | %42
 E,2 E,4 E,2 | E,,2 z2 E,,2 z2 | E,,2 z2 E,,2 z2 | E,,2 z2 E,,2 z2 | E,,2 z2 |[K:Db] _F,,2 z2 | %48
 E,,2 z2 E,,2 z2 | E,,2 z2 _G,,2 z2 | [F,,A,,]4 [F,,A,,]4 | [F,,A,,]4 [G,,B,,]4 | A,,4 =A,,4 | %53
 B,,4 x4 | x8 | x8 | (3(E,,A,,G,) (.A,.B,) (3z (D,,F,) (.[F,A,].[A,D]) | (3z (D,,D,) (.D.E) D4 | %58
 (3z (D,,D,) (.D.E) D(.[F,A,].[A,D].[DF]) | (3z (D,,D,) (.D.E) D2 F,2 | x8 | %61
 [G,__B,]4 __B,,,__B,,- [B,,,B,,]2- | D,4 [G,,,G,,]4 | x8 |] %64

